X:31
T:Stingo
T:A Cup of Old Stingo
T:The Oyle of Barley
T:Cold and Raw
C:Playford, 1651
W:1690?
M:6/8
L:1/8
K:Em
%P:
%Q:
V:1
V:2
V:3 clef=bass
%
P:
V:1
|: "Em" E2 E B2 G | "D" A F2 D2 D | "Em" E2 E B2 G | "C" E3 G2 E |
"Em" E2 E B2 G | "D" A2 F D2 D | "Em" E2 E B2 G | "C" E3 G2 G |
"G" G2 G G2 F/G/ | "D" A2 A A2 A | "G" B2 B "Em" e2 d | "G" B3 "D" d2 G |
"G" G2 G G>-FG | "D" A2 A A>-Bc | "G" B>-AG "D" A F2 | "Em" E3 B3 :|
%
P:Instrumental Variant
V:1
|: "Em" E2 E B2 A | "G" Bcd D2 D | "Em" E2 E B2 G | "C" E3 G3 | "Em" E2 E B2 A | "G" Bcd D2 D | "Em" E2 E B2 G | "C" E3 G3 :|
|: "G" G2 G G2 F/G/ | "D" A2 A A2 A | "G" B2 B "Em" e2 d | "G" B3 "D" d3 | "G" G2 G G2 F/G/ | "D" A2 A A>Bc | "G" B>AG "Bm" FGD | "Em" E3 B3 :|

%%topmargin 1.2 in
%%bottommargin 1.0 in
%%titlefont Times-Roman 24
%%composerspace 0
%%partsspace 0
%%writehistory 1
%%scale 0.7
%%maxshrink 1
%
%
